X:1
T:Title
T:박완규-련(드라마'순정'OST') https://hanmel.blog.me/ 
T:작사:이현우 작곡:박성일 노래:박완규 채보:한승희 
C:Composer
%%score ( 1 2 )
L:1/8
Q:1/4=65
M:4/4
K:C
V:1 perc nm="드럼세트" snm="D. Set"
K:none
I:percmap A A 41 normal
I:percmap ^a a 49 x
I:percmap ^e e 46 x
I:percmap ^f f 51 x
I:percmap c c 38 normal
I:percmap d d 45 normal
I:percmap e e 47 normal
V:2 perc 
K:none
I:percmap F F 36 normal
V:1
 z8 | z8 | z8 | z8 | z8 | z8 | z8 | z8 | z8 | z8 | z8 | z8 | z8 | z8 | z8 | z8 | z8 | z8 | z8 | %19
w: |||||||||||||||||||
 z8 | z8 | z8 | z8 | z8 | z8 | z8 | z8 | z8 | z8 | z8 | z8 | z8 | z8 | z8 | z8 | z8 | %36
w: |||||||||||||||||
 z4{/c} c(3d/A/ z/ (6:4:6e/e/d/d/A/A/ | ^a"^Hi-Hat Open"^e[c^e]^e ^e^e[c^e]^e | %38
w: |남 은 시 간 에 * * *|
 ^e^e[c^e]^e ^e/c/^e [c^a]^e | ^a^e[c^e]^e ^e^e[c^e]^e | ^a^e[c^e]^e ^a^e e/e/d | %41
w: 이 별 을 고 하 는 * * 조|금은 불 안 한 나 를 지 금|알 * 아 주 오 * * * *|
 ^a^e[c^e]^e ^e^e[c^e]^e | ^e^e[c^e]^e ^a/c/^e e/e/d | ^a^e[c^e]^e ^e^e[c^e]^e | %44
w: 보고 * 있다 면 * * * 그대|보고 * 있다 면 * * * * * 나를|붙 잡 는 두려 움을 먼 저 *|
 ^a^e e/d/ z ed/d/ e/e/d/A/ | ^a^e[c^e]^e ^e^e[c^e]^e | ^e^e[c^e]^e ^a/c/^e [c^a]^e | %47
w: 데려 가 주 오 * * * * * * *|예~ * * * * * * *|(둘이 벌 하 여 * * * * 다신|
 ^a^e[c^e]^e ^e^e[c^e]^e | ^a^e[c^e]^e e/4e/4dd/4d/4 d/d/[c^a] | ^a^e[c^e]^e ^e^e[c^e]^e | %50
w: 그 대 곁 에 서 함께 할 *|수 * * 없 다면 * * * * * * *|예~ * * * * * * *|
 ^a^e[c^e]^e ^a/c/^e e/e/d/A/ | ^a^e[c^e]^e ^e^e[c^a]^e | ^a^e[c^e]^e ^a2{/A} A2 | z8 | z8 | z8 | %56
w: 그렇 게 * 웃기 를 * * * * 그 것|이 내 가 마 지막 바라 는 *|일 인 걸 * * *||||
 z2 z2 e/>e/d/d/ d/4d/4d/A |"^RIDE CYMBAL" ^a^f^f^f ^f^f^f^f | ^a^f[c^f]^f ^f/c/^f [c^a]^f | %59
w: |||
 ^a^f[c^f]^f ^f^f[c^a]^f | ^ae ed/d/4d/4 e/4e/4e/d/4d/4d/ e/d/A/ z/ | ^a^f[c^f]^f ^f^f[c^a]^f | %62
w: |||
 ^a^f[c^f]^f ^f/c/^f [c^a]^f | ^a^f[c^f]^f ^f^f[c^a]^f | %64
w: ||
 z e/d/ z/ e/>d/d/ e/e/>d/d/ (6:4:6e/4e/4ed/4d/4d | ^a^e[c^e]^e ^e^e[c^a]^e | %66
w: ||
 ^a^e[c^e]^e ^e/c/^e [c^a]^e | ^a^e[c^e]^e ^e^e[c^a]^e | %68
w: ||
 ed/d/ z/ e/>d/d/ e/e/>d/d/ e/4e/4e/d/4d/4d/ |"^Fade out" ^a^e[c^e]^e ^e^e[c^a]^e | %70
w: ||
 ^a^e[c^e]^e ^e/c/^e [c^a]^e | ^a^e[c^e]^e ^e^e[c^a]^e |] %72
w: ||
V:2
 x8 | x8 | x8 | x8 | x8 | x8 | x8 | x8 | x8 | x8 | x8 | x8 | x8 | x8 | x8 | x8 | x8 | x8 | x8 | %19
 x8 | x8 | x8 | x8 | x8 | x8 | x8 | x8 | x8 | x8 | x8 | x8 | x8 | x8 | x8 | x8 | x8 | %36
 z4 z (3z/ z/ F/ F2 | F2 z z/ F/ F2 z2 | F2 z z/ F/ F>F z z | F2 z z/ F/ F2 z2 | F2 z z/ F/ F2 z2 | %41
 F2 z z/ F/ F2 z2 | F2 z z/ F/ F3/2F/4F/4 z2 | F2 z z/ F/ F2 z2 | F3/2F3/2 z/ F/ F2 z2 | %45
 F2 z z/ F/ F2 z2 | F2 z z/ F/ F>F z2 | F2 z z/ F/ F2 z2 | F>F z z/ F/ x4 | F2 z z/ F/ F2 z2 | %50
 F2 z z/ F/ F3/2F/4F/4 z2 | F2 z z/ F/ F3/2F3/2 z | F2 z z/ F/ F2 z2 | x8 | x8 | x8 | x8 | %57
 FF z2 FF/F/ z2 | FF z2 FF/F/ z z | FF z2 FF/F/ z z/ F/ | F2 F2 F2 F z/ F/ | FF z z/ F/ FF/F/ z2 | %62
 FF z z/ F/ FF/F/ z z | FF z z/ F/ FF z z/ F/ | F2 z2 z4 | FF z z/ F/ FF/F/ z z/ F/ | %66
 FF z z/ F/ FF/F/ z z | FF z z/ F/ FF z z/ F/ | F2 z2 z4 | FF z z/ F/ FF/F/ z z/ F/ | %70
 FF z z/ F/ FF/F/ z z | FF z z/ F/ FF z z/ F/ |] %72

